assets/picture.svg

<svg height="360" viewBox="0 0 640 360" width="640" xmlns="http://www.w3.org/2000/svg" xmlns:xlink="http://www.w3.org/1999/xlink"><mask id="a" fill="#fff"><path d="m.29103604.38149606h107.09326596v81.87949604h-107.09326596z" fill="none"/></mask><mask id="b" fill="#fff"><path d="m.00016487.76315774h99.98334143v100.38550326h-99.98334143z" fill="none"/></mask><g fill="none" fill-rule="evenodd"><path d="m0 0h640v360h-640z" fill="#4d384b"/><g fill="#fffffe" transform="translate(142 130)"><path d="m160.949324 28.2837165c3.12384 1.3693701 3.351712 2.3965985.909088 7.0749449-2.499392 4.7931969-3.124639 5.078315-6.191712 3.8229921-3.862623-1.6544881-8.804639-2.909811-11.985247-2.909811-5.225856 0-8.691104 1.8825827-8.691104 4.7353701 0 9.4153228 29.935935 4.3370079 29.935935 24.4213701 0 10.0996063-8.635135 16.8324094-21.585439 16.8324094-6.81696 0-15.224223-2.281748-21.017759-5.2493858-2.896768-1.4834173-3.067072-2.3395748-.567681-7.1319685 2.158784-4.2229606 2.84-4.6791496 5.96384-3.3668032 4.942016 2.168504 11.190496 3.8229922 15.394528 3.8229922 4.770912 0 7.952319-1.9396063 7.952319-4.7931969 0-9.1294016-30.446847-4.7923937-30.446847-24.249496 0-10.3277008 8.577568-17.232378 21.415136-17.232378 6.021407 0 13.632319 1.8263622 18.914943 4.2229606"/><path d="m185.092523 4.43258268v74.86157482c0 1.1412756-1.192129 2.3395748-2.895969 2.3395748h-7.839583c-1.70384 0-2.896768-1.1982992-2.896768-2.3395748v-74.86157482c0-3.70894488 1.022624-4.05108662 6.81616-4.05108662 6.589887 0 6.81616.45618898 6.81616 4.05108662"/><path d="m204.690282 65.2004882c0 3.8229921 3.237376 6.3906614 8.122623 6.3906614 5.907872 0 11.246464-2.8527874 14.371104-7.7030079v-5.0212913c-3.12464-1.1982992-6.930495-1.8825827-10.338176-1.8825827-7.271103 0-12.155551 3.4800473-12.155551 8.2162205zm36.126047-18.6579685v32.2384252c0 1.7115118-1.192129 2.909811-2.895969 2.909811h-7.726047c-1.760608 0-3.010304-1.3123465-2.896768-3.0808819l.113536-3.4808504c-4.203232 4.6783465-10.22464 7.1319685-16.246047 7.1319685-11.701408 0-19.540192-6.7898267-19.540192-16.9464567 0-10.7838897 8.861408-18.0307086 22.153919-18.0877323 5.055552 0 9.65616.9131812 13.405248 2.4536221v-3.7089449c0-5.9344724-4.658176-9.4715433-12.553727-9.4715433-3.69232 0-8.23616 1.4834173-11.871712 3.5948976-2.783232 1.5974646-3.465248 1.4834174-6.475552-3.0238582-2.953536-4.5080788-2.8408-5.3642362 0-7.1897953 5.452928-3.537874 12.837568-5.8204252 19.653727-5.8204252 15.280192 0 24.879584 8.3310709 24.879584 22.4817638z"/><g transform="translate(247.060811)"><path d="m46.9271622 28.3977638c2.8392004 1.6544882 2.953536 2.5676693-.1711036 7.4170866-2.9535361 4.5651024-3.4644482 4.8502205-6.5882883 3.2527559-2.3858559-1.2553228-6.1925113-2.3395748-9.3163514-2.3395748-9.8264639 0-16.3595833 6.5047087-16.3595833 16.3191968 0 10.2136536 6.5331194 17.060504 16.3595833 17.060504 3.4084797 0 7.6684797-1.3123465 10.4517117-2.8527874 2.84-1.6552914 3.4652478-1.5412441 6.4755518 2.8527874 2.726464 4.1081102 2.669696 5.0783149.2270721 6.7898268-4.373536 3.0246614-11.3040315 5.363433-17.3814077 5.363433-18.1769594 0-30.33331076-11.6970708-30.33331076-29.2137638 0-17.4034488 12.15635136-28.9864724 30.44684686-28.9864724 5.5664639 0 12.0995833 1.8833858 16.1892793 4.3370079" mask="url(#a)"/><path d="m106.231351 74.5579843c2.27232 2.909811 1.363232 3.9370393-4.317567 5.991496-5.7935363 2.1114803-6.5890881 1.9966299-8.6335363-.6850866l-16.2460472-21.795874-7.2711037 7.0749449v14.1506929c0 1.1412756-1.1921283 2.3395748-2.8959684 2.3395748h-7.8395834c-1.70384 0-2.896768-1.1982992-2.896768-2.3395748v-74.86157482c0-3.70894488 1.0226239-4.05108662 6.8161599-4.05108662 6.5898874 0 6.8161599.45618898 6.8161599 4.05108662v42.56612602l22.267455-21.4545355c2.4426239-2.3387716 3.8058559-2.1677008 8.1793922.7421103 4.828479 3.1379055 5.169088 3.994063 2.84 6.2766141l-16.5866557 16.2043465z" mask="url(#a)"/></g><path d="m41.1584122 47.5721575 4.3071734 12.9162519 13.3588739-4.4944251-4.3063739-12.916252z"/><g transform="translate(0 .80315)"><path d="m41.1584122 46.7690079 4.3071734 12.9162519 13.3588739-4.4944252-4.3063739-12.9162519z" mask="url(#b)"/><path d="m78.4222185 59.5784409-6.4779505 2.1789449 2.2451352 6.7328032c.9090878 2.7266929-.5540879 5.6774645-3.2685586 6.5898425-.5900676.1991811-1.1913288.2851181-1.7789978.2690551-2.1172072-.0546142-4.0697072-1.4183622-4.7805067-3.5515275l-2.2451351-6.7336063-13.3588739 4.493622 2.2451351 6.7336063c.9090879 2.7258898-.5540878 5.6766614-3.2685585 6.5898425-.5900676.198378-1.1905293.284315-1.7789978.2690551-2.1164076-.0554173-4.0689076-1.4191653-4.7805067-3.5523307l-2.2451352-6.7336063-6.47875 2.1797481c-.5908671.1983779-1.1913288.2843149-1.7797973.2690551-2.1164076-.0554173-4.0689076-1.4191654-4.7805067-3.5523307-.9090879-2.7266929.5548874-5.6766614 3.2685585-6.5898425l6.47875-2.1789449-4.3071734-12.916252-6.4779505 2.1789449c-.5900675.1983779-1.1913288.2843149-1.7797972.2690551-2.1156082-.0554173-4.0689077-1.4191654-4.7797073-3.5523307-.9090878-2.7266929.5540879-5.6766614 3.2685586-6.5898425l6.4771509-2.1789449-2.2451351-6.7336063c-.9090879-2.7258898.5540878-5.6758583 3.2685585-6.5898425 2.7144707-.912378 5.6512162.5573858 6.5595045 3.2832756l2.2451352 6.7336063 13.3588738-4.4936221-2.2451351-6.7336063c-.9090878-2.7266929.5548874-5.6766614 3.2685586-6.5898425 2.7136711-.9131811 5.6512162.5573858 6.560304 3.2832756l2.2451352 6.7336063 6.4779504-2.179748c2.7152703-.912378 5.6512162.5573858 6.5603041 3.2832755.9090878 2.726693-.5548874 5.6766615-3.2685586 6.5898426l-6.4779505 2.1789448 4.3063739 12.9170552 6.47875-2.1797481c2.7144707-.9123779 5.6512162.5573859 6.5595045 3.2832756.9090879 2.7258898-.5540878 5.6766614-3.2685585 6.5898425zm17.3766103-22.4030551c-10.3069932-34.50973226-25.1946058-42.56211021-59.5496509-32.20870863-34.35504502 10.35340153-42.3713288 25.30804723-32.06433556 59.81777953 10.30699326 34.5097323 25.19460586 42.5621103 59.54965086 32.2087087 34.3550451-10.3534016 42.3713288-25.3080473 32.0643356-59.8177796z" mask="url(#b)"/></g></g></g></svg>

<?xml version="1.0" encoding="UTF-8"?>
<svg width="640px" height="360px" viewBox="0 0 640 360" version="1.1" xmlns="http://www.w3.org/2000/svg" xmlns:xlink="http://www.w3.org/1999/xlink">
    <!-- Generator: Sketch 50.2 (55047) - http://www.bohemiancoding.com/sketch -->
    <title>slack/picture</title>
    <desc>Created with Sketch.</desc>
    <defs>
        <polygon id="path-1" points="0.291036036 0.381496063 107.384302 0.381496063 107.384302 82.2609921 0.291036036 82.2609921"></polygon>
        <polygon id="path-3" points="0.000164874722 0.763157743 99.9835063 0.763157743 99.9835063 101.148661 0.000164874722 101.148661"></polygon>
    </defs>
    <g id="slack/picture" stroke="none" stroke-width="1" fill="none" fill-rule="evenodd">
        <rect id="Rectangle" fill="#4D384B" x="0" y="0" width="640" height="360"></rect>
        <g id="Slack-Monochrome-White-—-Print" transform="translate(142.000000, 130.000000)">
            <path d="M160.949324,28.2837165 C164.073164,29.6530866 164.301036,30.680315 161.858412,35.3586614 C159.35902,40.1518583 158.733773,40.4369764 155.6667,39.1816535 C151.804077,37.5271654 146.862061,36.2718425 143.681453,36.2718425 C138.455597,36.2718425 134.990349,38.1544252 134.990349,41.0072126 C134.990349,50.4225354 164.926284,45.3442205 164.926284,65.4285827 C164.926284,75.528189 156.291149,82.2609921 143.340845,82.2609921 C136.523885,82.2609921 128.116622,79.9792441 122.323086,77.0116063 C119.426318,75.528189 119.256014,74.6720315 121.755405,69.8796378 C123.914189,65.6566772 124.595405,65.2004882 127.719245,66.5128346 C132.661261,68.6813386 138.909741,70.3358268 143.113773,70.3358268 C147.884685,70.3358268 151.066092,68.3962205 151.066092,65.5426299 C151.066092,56.4132283 120.619245,60.7502362 120.619245,41.2931339 C120.619245,30.9654331 129.196813,24.0607559 142.034381,24.0607559 C148.055788,24.0607559 155.6667,25.8871181 160.949324,28.2837165" id="Fill-1" fill="#FFFFFE"></path>
            <path d="M185.092523,4.43258268 L185.092523,79.2941575 C185.092523,80.4354331 183.900394,81.6337323 182.196554,81.6337323 L174.356971,81.6337323 C172.653131,81.6337323 171.460203,80.4354331 171.460203,79.2941575 L171.460203,4.43258268 C171.460203,0.723637795 172.482827,0.381496063 178.276363,0.381496063 C184.86625,0.381496063 185.092523,0.837685039 185.092523,4.43258268" id="Fill-2" fill="#FFFFFE"></path>
            <path d="M204.690282,65.2004882 C204.690282,69.0234803 207.927658,71.5911496 212.812905,71.5911496 C218.720777,71.5911496 224.059369,68.7383622 227.184009,63.8881417 L227.184009,58.8668504 C224.059369,57.6685512 220.253514,56.9842677 216.845833,56.9842677 C209.57473,56.9842677 204.690282,60.464315 204.690282,65.2004882 Z M240.816329,46.5425197 L240.816329,78.7809449 C240.816329,80.4924567 239.6242,81.6907559 237.92036,81.6907559 L230.194313,81.6907559 C228.433705,81.6907559 227.184009,80.3784094 227.297545,78.609874 L227.411081,75.1290236 C223.207849,79.8073701 217.186441,82.2609921 211.165034,82.2609921 C199.463626,82.2609921 191.624842,75.4711654 191.624842,65.3145354 C191.624842,54.5306457 200.48625,47.2838268 213.778761,47.2268031 C218.834313,47.2268031 223.434921,48.1399843 227.184009,49.6804252 L227.184009,45.9714803 C227.184009,40.0370079 222.525833,36.499937 214.630282,36.499937 C210.937962,36.499937 206.394122,37.9833543 202.75857,40.0948346 C199.975338,41.6922992 199.293322,41.578252 196.283018,37.0709764 C193.329482,32.5628976 193.442218,31.7067402 196.283018,29.8811811 C201.735946,26.3433071 209.120586,24.0607559 215.936745,24.0607559 C231.216937,24.0607559 240.816329,32.3918268 240.816329,46.5425197 Z" id="Fill-3" fill="#FFFFFE"></path>
            <g id="Group-7" transform="translate(247.060811, 0.000000)">
                <mask id="mask-2" fill="white">
                    <use xlink:href="#path-1"></use>
                </mask>
                <g id="Clip-5"></g>
                <path d="M46.9271622,28.3977638 C49.7663626,30.052252 49.8806982,30.9654331 46.7560586,35.8148504 C43.8025225,40.3799528 43.2916104,40.6650709 40.1677703,39.0676063 C37.7819144,37.8122835 33.975259,36.7280315 30.8514189,36.7280315 C21.024955,36.7280315 14.4918356,43.2327402 14.4918356,53.0472283 C14.4918356,63.2608819 21.024955,70.1077323 30.8514189,70.1077323 C34.2598986,70.1077323 38.5198986,68.7953858 41.3031306,67.2549449 C44.1431306,65.5996535 44.7683784,65.7137008 47.7786824,70.1077323 C50.5051464,74.2158425 50.4483784,75.1860472 48.0057545,76.8975591 C43.6322185,79.9222205 36.701723,82.2609921 30.6243468,82.2609921 C12.4473874,82.2609921 0.291036036,70.5639213 0.291036036,53.0472283 C0.291036036,35.6437795 12.4473874,24.0607559 30.7378829,24.0607559 C36.3043468,24.0607559 42.8374662,25.9441417 46.9271622,28.3977638" id="Fill-4" fill="#FFFFFE" mask="url(#mask-2)"></path>
                <path d="M106.231351,74.5579843 C108.503671,77.4677953 107.594583,78.4950236 101.913784,80.5494803 C96.1202477,82.6609606 95.3246959,82.5461102 93.2802477,79.8643937 L77.0342005,58.0685197 L69.7630968,65.1434646 L69.7630968,79.2941575 C69.7630968,80.4354331 68.5709685,81.6337323 66.8671284,81.6337323 L59.027545,81.6337323 C57.323705,81.6337323 56.130777,80.4354331 56.130777,79.2941575 L56.130777,4.43258268 C56.130777,0.723637795 57.1534009,0.381496063 62.9469369,0.381496063 C69.5368243,0.381496063 69.7630968,0.837685039 69.7630968,4.43258268 L69.7630968,46.9987087 L92.0305518,25.5441732 C94.4731757,23.2054016 95.8364077,23.3764724 100.209944,26.2862835 C105.038423,29.424189 105.379032,30.2803465 103.049944,32.5628976 L86.4632883,48.7672441 L106.231351,74.5579843" id="Fill-6" fill="#FFFFFE" mask="url(#mask-2)"></path>
            </g>
            <polyline id="Fill-8" fill="#FFFFFE" points="41.1584122 47.5721575 45.4655856 60.4884094 58.8244595 55.9939843 54.5180856 43.0777323 41.1584122 47.5721575"></polyline>
            <g id="Group-12" transform="translate(0.000000, 0.803150)">
                <mask id="mask-4" fill="white">
                    <use xlink:href="#path-3"></use>
                </mask>
                <g id="Clip-10"></g>
                <polyline id="Fill-9" fill="#FFFFFE" mask="url(#mask-4)" points="41.1584122 46.7690079 45.4655856 59.6852598 58.8244595 55.1908346 54.5180856 42.2745827 41.1584122 46.7690079"></polyline>
                <path d="M78.4222185,59.5784409 L71.944268,61.7573858 L74.1894032,68.490189 C75.098491,71.2168819 73.6353153,74.1676535 70.9208446,75.0800315 C70.330777,75.2792126 69.7295158,75.3651496 69.1418468,75.3490866 C67.0246396,75.2944724 65.0721396,73.9307244 64.3613401,71.7975591 L62.116205,65.0639528 L48.7573311,69.5575748 L51.0024662,76.2911811 C51.9115541,79.0170709 50.4483784,81.9678425 47.7339077,82.8810236 C47.1438401,83.0794016 46.5433784,83.1653386 45.9549099,83.1500787 C43.8385023,83.0946614 41.8860023,81.7309134 41.1744032,79.597748 L38.929268,72.8641417 L32.450518,75.0438898 C31.8596509,75.2422677 31.2591892,75.3282047 30.6707207,75.3129449 C28.5543131,75.2575276 26.6018131,73.8937795 25.890214,71.7606142 C24.9811261,69.0339213 26.4451014,66.0839528 29.1587725,65.1707717 L35.6375225,62.9918268 L31.3303491,50.0755748 L24.8523986,52.2545197 C24.2623311,52.4528976 23.6610698,52.5388346 23.0726014,52.5235748 C20.9569932,52.4681575 19.0036937,51.1044094 18.2928941,48.9712441 C17.3838063,46.2445512 18.846982,43.2945827 21.5614527,42.3814016 L28.0386036,40.2024567 L25.7934685,33.4688504 C24.8843806,30.7429606 26.3475563,27.7929921 29.062027,26.8790079 C31.7764977,25.9666299 34.7132432,27.4363937 35.6215315,30.1622835 L37.8666667,36.8958898 L51.2255405,32.4022677 L48.9804054,25.6686614 C48.0713176,22.9419685 49.5352928,19.992 52.248964,19.0788189 C54.9626351,18.1656378 57.9001802,19.6362047 58.809268,22.3620945 L61.0544032,29.0957008 L67.5323536,26.9159528 C70.2476239,26.0035748 73.1835698,27.4733386 74.0926577,30.1992283 C75.0017455,32.9259213 73.5377703,35.8758898 70.8240991,36.7890709 L64.3461486,38.9680157 L68.6525225,51.8850709 L75.1312725,49.7053228 C77.8457432,48.7929449 80.7824887,50.2627087 81.690777,52.9885984 C82.5998649,55.7144882 81.1366892,58.6652598 78.4222185,59.5784409 Z M95.7988288,37.1753858 C85.4918356,2.66565354 70.604223,-5.38672441 36.2491779,4.96667717 C1.89413288,15.3200787 -6.1221509,30.2747244 4.18484234,64.7844567 C14.4918356,99.294189 29.3794482,107.346567 63.7344932,96.9931654 C98.0895383,86.6397638 106.105822,71.6851181 95.7988288,37.1753858 Z" id="Fill-11" fill="#FFFFFE" mask="url(#mask-4)"></path>
            </g>
        </g>
    </g>
</svg>
